public/img/logo.svg

<svg width="42" height="50" viewBox="0 0 42 50" fill="none" xmlns="http://www.w3.org/2000/svg">
<g clip-path="url(#clip0_14_18)">
<path d="M39.8465 32.484C40.0286 32.5602 40.2108 32.5983 40.3929 32.5983C40.6842 32.5983 40.9392 32.5221 41.1213 32.3315C41.3034 32.1408 41.4491 31.8739 41.522 31.5308C41.5948 31.1876 41.6676 30.7682 41.6676 30.3107V15.1363C41.6676 14.6788 41.6312 14.2212 41.522 13.7637C41.4491 13.3062 41.3034 12.8868 41.1213 12.4674C40.9392 12.0481 40.6842 11.6668 40.3929 11.3236C40.1015 10.9805 39.7373 10.6755 39.3366 10.4086L38.2076 9.72231C37.8069 9.4554 37.4427 9.34106 37.1513 9.34106C36.86 9.34106 36.605 9.41731 36.4229 9.6079C36.2408 9.79856 36.095 10.0655 36.0222 10.4086C35.9494 10.7517 35.8765 11.1711 35.8765 11.6286V26.8412C35.8765 27.2987 35.913 27.7562 36.0222 28.2137C36.095 28.6713 36.2408 29.0906 36.4229 29.5101C36.605 29.9295 36.86 30.3107 37.1513 30.6539C37.4063 30.9589 37.6976 31.2258 38.0255 31.4546L36.2044 30.387L10.0898 42.5494L12.348 43.8838L17.4835 41.52L22.9468 44.7607L18.9404 47.8109L21.2714 49.1835L41.6676 33.5515L39.8465 32.484ZM24.5493 43.4263L19.5595 40.4525L36.0586 32.7508L37.8798 33.8184L24.5493 43.4263ZM39.3366 29.8532L38.2076 29.1669C37.9526 29.0144 37.8069 28.8238 37.6976 28.5569C37.5884 28.3281 37.552 28.0612 37.552 27.8325V12.5818C37.552 12.3531 37.5884 12.1624 37.6976 12.0099C37.8069 11.8956 37.9526 11.8956 38.2076 12.0481L39.3366 12.7343C39.5551 12.8868 39.7373 13.0775 39.8465 13.3062C39.9558 13.5731 39.9922 13.8019 39.9922 14.0306V29.2431C39.9922 29.472 39.9558 29.6626 39.8465 29.8151C39.7009 30.0057 39.5551 29.9676 39.3366 29.8532Z" fill="#76FF6A"/>
<path d="M33.3989 28.4044C33.7268 28.4044 33.9453 28.3282 34.1638 28.1375C34.3459 27.9469 34.4916 27.68 34.6008 27.3368C34.7101 26.9937 34.7465 26.5743 34.7465 26.1168V10.7518C34.7465 10.2943 34.7101 9.83667 34.6008 9.37917C34.4916 8.92167 34.3823 8.50225 34.1638 8.08286C33.9817 7.66347 33.7268 7.2822 33.3989 6.93906C33.0712 6.59592 32.7069 6.25278 32.2698 6.02402L31.0679 5.33774C30.6308 5.07085 30.2303 4.95648 29.9388 4.91834C29.611 4.91834 29.3561 4.9946 29.174 5.18523C28.9918 5.37587 28.8462 5.64275 28.7369 5.98589C28.6277 6.32903 28.5913 6.74842 28.5913 7.20595V22.5329C28.5913 22.9904 28.6277 23.4479 28.7369 23.9054C28.8462 24.363 28.9554 24.8205 29.174 25.2018C29.3561 25.6212 29.611 26.0024 29.9388 26.3837C30.1573 26.6124 30.4123 26.8412 30.6673 27.0318L30.2667 26.8031L21.926 31.7596L21.8532 26.2312L25.5682 24.0198L27.9721 6.02402V3.54578L22.2174 0V2.47823L26.151 4.88022L23.3101 22.6473L17.1183 26.3074L17.1548 26.2693L18.3567 25.4687C18.7938 25.1637 19.1943 24.8205 19.4858 24.4011C19.8135 23.9817 20.0685 23.5623 20.2506 23.1048C20.4328 22.6473 20.5784 22.1516 20.6877 21.6178C20.7969 21.0841 20.8333 20.5884 20.8333 20.0547V2.82138C20.8333 2.32573 20.7969 1.86821 20.6877 1.44882C20.5784 1.06755 20.4692 0.762534 20.2506 0.533774C20.0685 0.305013 19.8135 0.22876 19.4858 0.22876C19.1579 0.22876 18.7938 0.381267 18.3567 0.686281L17.1548 1.48694C16.7177 1.79196 16.317 2.13509 16.0257 2.55449C15.6978 2.97388 15.4429 3.39328 15.2608 3.8508C15.0787 4.30832 14.933 4.80397 14.8238 5.33774C14.7145 5.87152 14.6781 6.36716 14.6781 6.90093V24.1723C14.6781 24.7061 14.7145 25.1255 14.8238 25.5449C14.933 25.9262 15.0423 26.2312 15.2608 26.4599C15.4429 26.6887 15.6978 26.7649 16.0257 26.7649C16.2442 26.7649 16.5356 26.6887 16.8269 26.4981L9.87033 30.6538L11.0358 29.8533C11.4729 29.5482 11.8372 29.2051 12.1649 28.7857C12.4928 28.3663 12.7113 27.9469 12.9298 27.4893C13.1119 27.0318 13.2576 26.5362 13.3668 26.0024C13.4397 25.4687 13.5125 24.973 13.5125 24.4393V7.24408C13.5125 6.74843 13.4761 6.29091 13.3668 5.87152C13.294 5.49024 13.1483 5.18523 12.9298 4.95648C12.7477 4.72771 12.4928 4.65146 12.1649 4.65146C11.8736 4.65146 11.4729 4.80397 11.0358 5.10898L9.87033 5.90964C9.43325 6.21465 9.06908 6.55779 8.74125 6.97718C8.4135 7.39658 8.19494 7.81598 7.97641 8.27349C7.7943 8.731 7.64861 9.22667 7.57577 9.76042C7.50292 10.2943 7.43008 10.7898 7.43008 11.3237V28.5569C7.43008 29.0907 7.4665 29.5101 7.57577 29.9295C7.64861 30.3108 7.7943 30.6158 7.97641 30.8445C8.15852 31.0733 8.4135 31.1495 8.74125 31.1495C8.95983 31.1495 9.17833 31.0733 9.46967 30.9208L2.25816 35.1528C2.29458 35.1147 2.36743 35.0766 2.40385 35.0384L3.49651 34.2759C3.93357 33.9709 4.29779 33.6278 4.62558 33.2083C4.91697 32.789 5.17192 32.3696 5.39045 31.8739C5.57256 31.4164 5.71824 30.8827 5.82751 30.387C5.90036 29.8533 5.9732 29.3194 5.9732 28.8238V19.559C5.9732 19.0253 5.93678 18.5677 5.82751 18.1864C5.71824 17.7671 5.60898 17.462 5.39045 17.2714C5.20834 17.0427 4.95338 16.9664 4.62558 16.9664C4.33421 16.9664 3.93357 17.1189 3.49651 17.4239L1.71183 18.644V13.4588L5.68183 10.7518V8.00661L0 11.8955V22.5329L3.53293 20.1309C3.78788 19.9403 3.96999 19.9403 4.07926 20.0547C4.18853 20.2072 4.22495 20.3978 4.22495 20.7409V30.0058C4.22495 30.3108 4.18853 30.5776 4.07926 30.8445C3.96999 31.1114 3.78788 31.3402 3.53293 31.5308L2.44027 32.2933C2.18532 32.4839 2.00321 32.4839 1.89394 32.3314C1.78468 32.1789 1.74825 31.9502 1.74825 31.6833V24.8586L0 26.0405V32.8653C0 33.399 0.0364219 33.8565 0.145688 34.2378C0.218532 34.6572 0.364219 34.9622 0.546329 35.1528C0.728439 35.3816 0.983392 35.4578 1.31119 35.4578C1.52973 35.4578 1.8211 35.3816 2.11248 35.1909L0 36.4873L2.29458 37.8217L18.7938 28.0232L19.0123 33.4371L6.99302 40.5668L9.28758 41.9013L32.5613 28.0613C32.8526 28.3282 33.144 28.4044 33.3989 28.4044ZM9.324 27.985C9.21475 27.8325 9.17833 27.6418 9.17833 27.3368V10.1036C9.17833 9.83667 9.21475 9.53167 9.324 9.26475C9.43325 8.99792 9.61542 8.76917 9.87033 8.5785L11.0358 7.77785C11.2908 7.62534 11.4365 7.58722 11.5458 7.73973C11.655 7.89223 11.6914 8.08286 11.6914 8.38792V25.6212C11.6914 25.888 11.655 26.1931 11.5458 26.4599C11.4365 26.7268 11.2544 26.9556 11.0358 27.1081L9.87033 27.9088C9.61542 28.0994 9.43325 28.1375 9.324 27.985ZM16.6084 23.6386C16.4992 23.4861 16.4628 23.2954 16.4628 22.9904V5.71901C16.4628 5.45212 16.4992 5.14711 16.6084 4.88022C16.7177 4.61333 16.8998 4.38458 17.1548 4.19394L18.3567 3.39328C18.6116 3.24077 18.7938 3.20264 18.903 3.35515C19.0123 3.50766 19.0487 3.69829 19.0487 4.00331V21.2747C19.0487 21.5416 19.0123 21.8466 18.903 22.1135C18.7938 22.3804 18.6116 22.6092 18.3567 22.7617L17.1548 23.5623C16.8998 23.7529 16.7177 23.7911 16.6084 23.6386ZM31.0679 24.8968C30.813 24.7443 30.6308 24.5536 30.5216 24.2868C30.4123 24.0579 30.3759 23.7911 30.3759 23.5623V8.23537C30.3759 7.96848 30.4123 7.77785 30.5216 7.66347C30.6308 7.54909 30.813 7.54909 31.0679 7.70159L32.2698 8.38792C32.5248 8.54042 32.6705 8.731 32.7798 8.99792C32.889 9.26475 32.9254 9.49358 32.9254 9.76042V25.0873C32.9254 25.3543 32.889 25.5068 32.7798 25.6593C32.6705 25.7737 32.4884 25.7737 32.2698 25.6212L31.0679 24.8968Z" fill="#76FF6A"/>
</g>
<defs>
<clipPath id="clip0_14_18">
<rect width="42" height="50" fill="white"/>
</clipPath>
</defs>
</svg>

<svg width="42" height="50" fill="none" xmlns="http://www.w3.org/2000/svg"><g clip-path="url(#clip0_14_18)" fill="#76FF6A"><path d="M39.846 32.484c.183.076.365.114.547.114.291 0 .546-.076.728-.267a1.63 1.63 0 00.401-.8c.073-.343.146-.763.146-1.22V15.136c0-.457-.037-.915-.146-1.372a5.33 5.33 0 00-.4-1.297 4.643 4.643 0 00-.73-1.143 5.063 5.063 0 00-1.055-.915l-1.13-.687c-.4-.267-.764-.38-1.056-.38-.291 0-.546.075-.728.266-.182.19-.328.457-.4.8a5.854 5.854 0 00-.147 1.22v15.213c0 .458.037.915.146 1.373.073.457.219.877.4 1.296.183.42.438.8.73 1.144.254.305.546.572.873.8l-1.82-1.067L10.09 42.549l2.258 1.335 5.135-2.364 5.464 3.24-4.007 3.05 2.331 1.373 20.397-15.632-1.822-1.067zM24.55 43.426l-4.99-2.974 16.5-7.701 1.82 1.067-13.33 9.608zm14.788-13.573l-1.13-.686a1.173 1.173 0 01-.51-.61 1.72 1.72 0 01-.145-.724V12.582c0-.229.036-.42.146-.572.109-.114.255-.114.51.038l1.129.686c.218.153.4.344.51.572.109.267.145.496.145.725v15.212c0 .229-.036.42-.145.572-.146.19-.292.153-.51.038z"/><path d="M33.399 28.404c.328 0 .546-.076.765-.267.182-.19.328-.457.437-.8.11-.343.145-.763.145-1.22V10.752c0-.458-.036-.915-.145-1.373-.11-.457-.219-.877-.437-1.296-.182-.42-.437-.8-.765-1.144-.328-.343-.692-.686-1.13-.915l-1.201-.686a2.932 2.932 0 00-1.13-.42c-.327 0-.582.077-.764.267-.182.19-.328.458-.437.8-.11.344-.146.763-.146 1.22v15.328c0 .457.037.915.146 1.372.11.458.218.915.437 1.297.182.42.437.8.765 1.182.218.228.473.457.728.648l-.4-.229-8.341 4.957-.073-5.529 3.715-2.211 2.404-17.996V3.546L22.217 0v2.478l3.934 2.402-2.84 17.767-6.193 3.66.037-.038 1.202-.8c.437-.305.837-.649 1.129-1.068a5.28 5.28 0 00.765-1.296c.182-.458.327-.953.437-1.487.109-.534.145-1.03.145-1.563V2.82c0-.495-.036-.953-.145-1.372-.11-.381-.219-.686-.437-.915-.183-.229-.438-.305-.765-.305-.328 0-.692.152-1.13.457l-1.201.8c-.437.306-.838.65-1.13 1.068a5.28 5.28 0 00-.764 1.297 8.767 8.767 0 00-.437 1.487 7.57 7.57 0 00-.146 1.563v17.271c0 .534.036.953.146 1.373.109.381.218.686.437.915.182.229.437.305.765.305.218 0 .51-.076.8-.267L9.87 30.654l1.166-.8a5.117 5.117 0 001.129-1.068c.328-.42.546-.84.765-1.297.182-.457.328-.953.437-1.487.073-.533.145-1.029.145-1.563V7.244c0-.496-.036-.953-.145-1.372-.073-.382-.219-.687-.437-.916-.182-.228-.437-.305-.765-.305-.291 0-.692.153-1.13.458l-1.165.8a5.118 5.118 0 00-1.129 1.068c-.327.42-.546.839-.765 1.296a6.327 6.327 0 00-.4 1.487c-.073.534-.146 1.03-.146 1.564v17.233c0 .534.037.953.146 1.373.073.38.218.686.4.915.183.228.438.305.765.305.219 0 .437-.077.729-.23l-7.212 4.233c.037-.038.11-.076.146-.115l1.093-.762a5.115 5.115 0 001.129-1.068 7.77 7.77 0 00.764-1.334c.183-.458.328-.991.438-1.487.072-.534.145-1.068.145-1.563v-9.265c0-.534-.036-.991-.145-1.373-.11-.419-.219-.724-.438-.915-.182-.228-.437-.305-.764-.305-.292 0-.692.153-1.13.458l-1.784 1.22v-5.185l3.97-2.707V8.007L0 11.896v10.637l3.533-2.402c.255-.19.437-.19.546-.076.11.152.146.343.146.686v9.265c0 .305-.036.572-.146.838a1.618 1.618 0 01-.546.687l-1.093.762c-.255.19-.437.19-.546.038-.11-.152-.146-.38-.146-.648V24.86L0 26.04v6.825c0 .534.036.991.146 1.373.073.42.218.724.4.915.182.229.437.305.765.305.219 0 .51-.076.801-.267L0 36.487l2.295 1.335 16.499-9.799.218 5.414-12.019 7.13L9.288 41.9l23.273-13.84c.292.267.583.343.838.343zm-24.075-.419c-.11-.152-.146-.343-.146-.648V10.104c0-.267.037-.572.146-.84a1.62 1.62 0 01.546-.685l1.166-.801c.255-.153.4-.19.51-.038.109.152.145.343.145.648V25.62c0 .267-.036.572-.145.839-.11.267-.292.496-.51.648l-1.166.8c-.255.191-.437.23-.546.077zm7.284-4.346c-.109-.153-.145-.344-.145-.649V5.72c0-.267.036-.572.145-.839.11-.267.292-.495.547-.686l1.202-.8c.255-.153.437-.191.546-.039.11.153.146.343.146.648v17.272c0 .267-.037.572-.146.838-.11.267-.291.496-.546.649l-1.202.8c-.255.19-.437.23-.547.077zm14.46 1.258a1.244 1.244 0 01-.546-.61 1.718 1.718 0 01-.146-.725V8.235c0-.267.036-.457.146-.572.109-.114.291-.114.546.039l1.202.686c.255.152.4.343.51.61.109.267.145.496.145.762v15.327c0 .267-.036.42-.145.572-.11.115-.292.115-.51-.038l-1.202-.724z"/></g><defs><clipPath id="clip0_14_18"><path fill="#fff" d="M0 0h42v50H0z"/></clipPath></defs></svg>
